X:1
T: Lord Redhaven
C:Alexander Walker
R:Reel
Q: 232
K:A
M:4/4
L:1/8
|:C|EA cB A2 EC|A,A cA BB, B,C|EA cA de fg|ae fd cA AC|
EA cB A2 EC|A,A cA BB, B,C|EA cA de fg|ae fd cA Ae|
fa ef ce Bc|Ac BA BF Fe|fa ec AB cB|AF ED CA, A,d|
cA ec dB bd|cA ec fB Bc|EA cA de fg|ae fd cA A:|
